X:21
T:Irja
M:4/4
L:1/4
Q:1/4=240
R:humppa
K:Gm
"Cm" [cGE] z c/2d/2e/2f/2 | g ^f g2 |
"Gm" [GDB,] z G/2A/2B/2c/2 | d ^c d2 |
"Cm" [cE] [D=B] ([c2E2] | [cE] [BE] [AE] [GE] |
"D7" [^F2d2] C2 | B,2 A,"gliss" D  | !
|: "Gm" d ^c d B | G2 B2 | "D7" A ^G A ^F | D4 |
A ^G A ^F | (D2 d2) | B A B A | !
G F E D | "Cm" c =B c d | e z "Cdim" [c2A2E2] | "Gm" B A B c |
d z [B2G2D2] | "Cm" [c/2G/2E/2] [cGE] [c/2G/2E/2] [c2E2G2]) | !
"A7" [=E/2G/2^c/2] [cGE] [c/2G/2E/2] [c2G2E2]) |
[1 "D7" [d2^F2c2D2] C2 | B,2 A, D :|
[2 "D7" [d2^F2c2D2] C2 | B,2 "Laulu" [D2A,2] || !
"Gm" d2 B2 | {D/2=E/2^F/2} G d B G | d3 ^c | "D7" =c4 |
D2 ^F2 | D D =E ^F | "Gm" G3 A | B4 | !
"Cm" e2 c2 | e c A2 | "Gm" d2 B2 | d B G2 | "A7" A2 A2 |
G2 =E2 | "D7" [AD] z [A2E2] | [AD] C [DB,] [DA,] | "Gm" d2 B2 | !
{D/2=E/2^F/2} G d B G | d3 ^c | "D7" =c4 |
D2 ^F2 | D D =E ^F | "Gm" G3 A | B4 | "Cm" {c/2d/2} e2 c2 | !
A e c A | "Gm" {B/2c/2} d2 B2 | G d B G |
"D7" D2 "A7" =E2 | "D7" ^F D =E F | "Gm" G E D B, |
[1 [GB,] z "D7" D2 :|[2 [GB,] z [gdBG] z ||
